icons/css.svg

<svg height="2500" preserveAspectRatio="xMidYMid" viewBox="0 0 256 361" width="1773" xmlns="http://www.w3.org/2000/svg"><path d="m127.844 360.088-104.182-28.922-23.217-260.4h255.11l-23.241 260.36z" fill="#264de4"/><path d="m212.417 314.547 19.86-222.49h-104.277v245.893z" fill="#2965f1"/><path d="m53.669 188.636 2.862 31.937h71.469v-31.937zm-5.752-64.641 2.903 31.937h77.18v-31.937zm80.083 147.585-.14.037-35.568-9.604-2.274-25.471h-32.06l4.474 50.146 65.421 18.16.147-.04z" fill="#ebebeb"/><path d="m60.484 0h38.68v16.176h-22.504v16.176h22.506v16.175h-38.682zm46.417 0h38.681v14.066h-22.505v2.813h22.505v32.352h-38.68v-14.771h22.505v-2.813h-22.507v-31.647zm46.418 0h38.681v14.066h-22.505v2.813h22.505v32.352h-38.681v-14.771h22.505v-2.813h-22.504v-31.647z"/><path d="m202.127 188.636 5.765-64.641h-80.002v31.937h45.002l-2.906 32.704h-42.096v31.937h39.327l-3.708 41.42-35.62 9.614v33.226l65.473-18.145.48-5.396 7.506-84.08z" fill="#fff"/></svg>

<svg width="1773" height="2500" viewBox="0 0 256 361" xmlns="http://www.w3.org/2000/svg" preserveAspectRatio="xMidYMid"><path d="M127.844 360.088L23.662 331.166.445 70.766h255.11l-23.241 260.36-104.47 28.962z" fill="#264DE4"/><path d="M212.417 314.547l19.86-222.49H128V337.95l84.417-23.403z" fill="#2965F1"/><path d="M53.669 188.636l2.862 31.937H128v-31.937H53.669zM47.917 123.995l2.903 31.937H128v-31.937H47.917zM128 271.58l-.14.037-35.568-9.604-2.274-25.471h-32.06l4.474 50.146 65.421 18.16.147-.04V271.58z" fill="#EBEBEB"/><path d="M60.484 0h38.68v16.176H76.66v16.176h22.506v16.175H60.484V0zM106.901 0h38.681v14.066h-22.505v2.813h22.505v32.352h-38.68V34.46h22.505v-2.813H106.9V0zM153.319 0H192v14.066h-22.505v2.813H192v32.352h-38.681V34.46h22.505v-2.813H153.32V0z"/><path d="M202.127 188.636l5.765-64.641H127.89v31.937h45.002l-2.906 32.704H127.89v31.937h39.327l-3.708 41.42-35.62 9.614v33.226l65.473-18.145.48-5.396 7.506-84.08.779-8.576z" fill="#FFF"/></svg>
